X: 91
T: S'elle m'amera / Petite camusette
N: Derived from Ock3019-Selle_mamera__Petite_camusette.krn
C: Johannes Ockeghem
%%abc-version 2.0
%%abcx-abcm2ps-target-version 5.9.1 (29 Sep 2008)
%%abc-creator hum2abc beta
%%abcx-conversion-date 2019/02/17 07:26:16
%%abc-edited-by Jesse Rodin
%%abc-edited-by Jesse Rodin (8/16/2012)
%%abcx-initial-encoding-date 2012/08/16/
%%humdrum-veritas 2006951573
%%humdrum-veritas-data 1479018292
%%linebreak <none>
%%barnumbers 0
L: 1/4
M: 2/1
Q: 1/2=120
%%staves [1 2 3 4]
V: 1 clef=treble
V: 2 clef=treble-8
V: 3 clef=treble-8
V: 4 clef=bass
K: C
[V:1] E4E4 | 
[V:2] z8 | 
[V:3] A8 | 
[V:4] z8 | 
[V:1] A,4E4 | 
[V:2] e8 | 
[V:3] z8 | 
[V:4] z8 | 
[V:1] F4E2C2 | 
[V:2] A4e4 | 
[V:3] A8 | 
[V:4] z8 | 
[V:1] D4C4 | 
[V:2] f4e4 | 
[V:3] D4A4 | 
[V:4] z8 | 
[V:1] z2F3GA2 | 
[V:2] d4c4 | 
[V:3] _B4A4 | 
[V:4] z8 | 
[V:1] _B2G2A4 | 
[V:2] d8 | 
[V:3] G4F4 | 
[V:4] z8 | 
[V:1] G3A=B3A/B/ | 
[V:2] e4e4 | 
[V:3] G8 | 
[V:4] E,8 | 
[V:1] c2A2z2G2 | 
[V:2] c4B4 | 
[V:3] A4G4 | 
[V:4] A,,4E,4 | 
[V:1] A4G2E2 | 
[V:2] A2d4^c2 | 
[V:3] F4G4 | 
[V:4] F,4E,4 | 
[V:1] F4E4 | 
[V:2] d4z4 | 
[V:3] A8 | 
[V:4] D,4C,4 | 
[V:1] D6C2 | 
[V:2] f8 | 
[V:3] F6EF | 
[V:4] D,8 | 
[V:1] B,3A,C2B,2- | 
[V:2] e8 | 
[V:3] G4E4- | 
[V:4] E,4E,4 | 
[V:1] B,2A,4^G,2 | 
[V:2] z8 | 
[V:3] E4D4 | 
[V:4] C,4B,,4 | 
[V:1] A,8 | 
[V:2] c8 | 
[V:3] E8 | 
[V:4] A,,8 | 
[V:1] z8 | 
[V:2] e4e4 | 
[V:3] z8 | 
[V:4] C,8 | 
[V:1] A8 | 
[V:2] d4c2B2 | 
[V:3] F8 | 
[V:4] D,8 | 
[V:1] c4c4 | 
[V:2] A8 | 
[V:3] A4A4 | 
[V:4] z8 | 
[V:1] _B4G3A | 
[V:2] z8 | 
[V:3] G4E4 | 
[V:4] z8 | 
[V:1] _B2A3GA2 | 
[V:2] z8 | 
[V:3] D8 | 
[V:4] F,8 | 
[V:1] F2E2E4- | 
[V:2] c8 | 
[V:3] z8 | 
[V:4] A,4A,4 | 
[V:1] E2D2G4 | 
[V:2] B4c4 | 
[V:3] z8 | 
[V:4] G,4E,4 | 
[V:1] F2F4E2 | 
[V:2] d4c2B2 | 
[V:3] z8 | 
[V:4] D,8 | 
[V:1] C4D4 | 
[V:2] A8 | 
[V:3] z8 | 
[V:4] F,6E,D, | 
[V:1] E4F4 | 
[V:2] z8 | 
[V:3] A8 | 
[V:4] C,4D,4 | 
[V:1] E6C2 | 
[V:2] e8 | 
[V:3] A4A4 | 
[V:4] C,4A,,4- | 
[V:1] C8 | 
[V:2] e4e4 | 
[V:3] A4A4 | 
[V:4] A,,4A,,4 | 
[V:1] z4A4 | 
[V:2] e4e4 | 
[V:3] A8 | 
[V:4] A,,8 | 
[V:1] A4A4 | 
[V:2] e8 | 
[V:3] c6B2 | 
[V:4] z4A,,4- | 
[V:1] c4c4 | 
[V:2] e6f2 | 
[V:3] A4A4 | 
[V:4] A,,4A,,4 | 
[V:1] B8 | 
[V:2] g4g4 | 
[V:3] G4G4 | 
[V:4] E,6F,2 | 
[V:1] z4G4 | 
[V:2] d4d4 | 
[V:3] _B6AG | 
[V:4] G,6F,E, | 
[V:1] A4G4 | 
[V:2] f6ed | 
[V:3] F4G4 | 
[V:4] D,4E,4 | 
[V:1] F4A4- | 
[V:2] c4d4 | 
[V:3] A8 | 
[V:4] F,6E,D, | 
[V:1] A2G2G4 | 
[V:2] e8 | 
[V:3] z8 | 
[V:4] C,8 | 
[V:1] F4E4 | 
[V:2] A4e4 | 
[V:3] A8 | 
[V:4] D,4C,4 | 
[V:1] D4C4 | 
[V:2] f4e4 | 
[V:3] D4A4 | 
[V:4] D,4A,,4 | 
[V:1] z2F3EF2 | 
[V:2] d4c4 | 
[V:3] _B4A4 | 
[V:4] z8 | 
[V:1] G2_B2A4 | 
[V:2] d8 | 
[V:3] G4F4 | 
[V:4] z8 | 
[V:1] z2G4FG | 
[V:2] e4e4 | 
[V:3] G8 | 
[V:4] E,8 | 
[V:1] A2F2E4 | 
[V:2] c4B4 | 
[V:3] z4G4 | 
[V:4] A,,4E,4 | 
[V:1] D2D4C2 | 
[V:2] A4z4 | 
[V:3] A4G4 | 
[V:4] F,4E,4 | 
[V:1] D4E4 | 
[V:2] A4c4 | 
[V:3] F4E4 | 
[V:4] D,4C,4 | 
[V:1] F6ED | 
[V:2] _B2A4F2 | 
[V:3] D4F4 | 
[V:4] D,8 | 
[V:1] C4E4- | 
[V:2] G3A=B2AB | 
[V:3] E4G4 | 
[V:4] E,4E,4 | 
[V:1] E2DEF2D2- | 
[V:2] c2A4G2 | 
[V:3] A4D4 | 
[V:4] C,4B,,4 | 
[V:1] D2^C2C3B, | 
[V:2] A8- | 
[V:3] E8 | 
[V:4] A,,8 | 
[V:1] D8 ||  
[V:2] A8 ||  
[V:3] D8 ||  
[V:4] D,8 ||  



